!!!OTL: Der Graf und die Magd (23b), S. 97
!!!id: T0144
**kern
*clefG2
*k[f#c#]
*D:
{8d
8f#
=1
4a
4a
8a
8g
8f#
8e
=2
4d
4f#
4f#}
=3
{4f#
=4
4.e
8f#
4.g
8a
=5
4g
4f#}
8r
=6
{8f#
8e
8dd
=7
4dd
8ee
8dd
8cc#
8b
8a
8g
=8
4.f#
8a
4.dd
8a
=9
4cc#
4b}
4r
=10
{4b
=11
4.a
8b
8a
8g
8f#
8e
=12
4e
4d}
4r
==
*-
!!!minrhy: 8
!!!meters: 4/4 ]  ZZ[4
!!!cut: Der Graf und die Magd (23b), S. 97
!!!reg: Luxemburg
!!!trd: Singendes Volk, Esch-Alzette 1937 posth.
!!!rhy1: XX  X_X_XXXX  X_X_X_
!!!rhy2: X_  X_.XX_.X  X_X_0
!!!key: T0144  08  D 4/4 ]  ZZ[4
!!!mod: HEPTATONIK IONISCH]  AMBITUS[9
!!!kad: 3361
!!!akz: 5513_244_+173+17_552_
!!!fot: 'a__b__c__aw_
!!!for: 'a__b__c__d__
!!!fok: '~a_^__Ma_\__
!! PHRAS[AUFTAKTIG]
!!!fkt: Liebeslieder
!!!bem: Junglinster, fff Wachtmeister-Kaiser, 25.12.1932
!! THILL, Mathias:
!! PR[9] 2K[4] 2G[21] 3K[9] 3G[6] 4A[4] 4Ü[0] 5A[0] 6K[0] 6G[0]
!! 7K[0] 7G[0] 8A[0] MEHR[0] SI[45] ABS[47] SR[26] SP[19]
!! ST[12] 2k[9] 2g[21] 3k[9] 3g[9] 4d[0] 4ü[0] 5d[0] 6k[0] 6g[0]
!! 7k[0] 7g[0] 8d[0] mehr[0] si[47] dm[-2] sr[30] sp[17]
!! 1F[71] 2F[10] 3F[0] 4F[0] LF[0] 2P[18] 3P[0] 4P[0] TRI[0] DF[3] AB[49]
!! TF[0] U3K[0] U3[0] U4[0] U4Ü[0] U5[0] U6K[0] U6[0] U7K[0] U7[0]
!! N1[13] N2K[0] N2[8] N3K[0] N3[21] N4[15] N4Ü[0] N5[25] N6K[0] N6[10]
!!!n7k: 0] N7[4] O1[4] O2K[0] O2[0] O3K[0] O3[0] HÖ[0
